X:1251
L:1/8
M:9/8
K:C
 z4 z2 (E2 A) | A3 A3 (B2 A) | G3 G3 (A2 B) | B3 c3 d3 | B6 (c2 B) | A3 A3 B3 | c(d)c B3 A3 | 
 G3 E3 E3 | E6 E2 A | A3 A3 B2 A | G6 A2 G | c2 B c3 d3 | B6 c2 B | A3 A3 B3 | c(d)c B3 A2 A | 
 G3 E3 E3 | E3 D3 C2 D | E3 E2 G ^F2 E | D3 D2 ^F E2 D | C3 C2 E D2 C | B,6 A,2 B, | 
 C(D)C B,3 C2 D | F3 E3 D3 | E3 A3 G3/2 A3/2 | A6 z2 z | Te2 ue2!p! c2 c2 e2 e2- |]

